modules/gui/qt/pixmaps/icons/profile_new.svg

<?xml version="1.0" encoding="UTF-8" standalone="no"?>
<!-- Created with Inkscape (http://www.inkscape.org/) -->

<svg
   xmlns:dc="http://purl.org/dc/elements/1.1/"
   xmlns:cc="http://creativecommons.org/ns#"
   xmlns:rdf="http://www.w3.org/1999/02/22-rdf-syntax-ns#"
   xmlns:svg="http://www.w3.org/2000/svg"
   xmlns="http://www.w3.org/2000/svg"
   xmlns:sodipodi="http://sodipodi.sourceforge.net/DTD/sodipodi-0.dtd"
   xmlns:inkscape="http://www.inkscape.org/namespaces/inkscape"
   width="48"
   height="48"
   viewBox="0 0 48 48"
   id="svg2"
   version="1.1"
   inkscape:version="0.92.1 r15371"
   sodipodi:docname="profile_new.svg">
  <defs
     id="defs8" />
  <sodipodi:namedview
     pagecolor="#ffffff"
     bordercolor="#666666"
     borderopacity="1"
     objecttolerance="10"
     gridtolerance="10"
     guidetolerance="10"
     inkscape:pageopacity="0"
     inkscape:pageshadow="2"
     inkscape:window-width="956"
     inkscape:window-height="1021"
     id="namedview6"
     showgrid="false"
     inkscape:zoom="4.9166666"
     inkscape:cx="23.927985"
     inkscape:cy="12.380424"
     inkscape:window-x="2560"
     inkscape:window-y="30"
     inkscape:window-maximized="0"
     inkscape:current-layer="layer1"
     showguides="true"
     inkscape:guide-bbox="true">
    <sodipodi:guide
       position="0,24.017661"
       orientation="1,0"
       id="guide2390"
       inkscape:locked="false" />
    <sodipodi:guide
       position="23.59322,0"
       orientation="0,1"
       id="guide2392"
       inkscape:locked="false" />
  </sodipodi:namedview>
  <metadata
     id="metadata7">
    <rdf:RDF>
      <cc:Work
         rdf:about="">
        <dc:format>image/svg+xml</dc:format>
        <dc:type
           rdf:resource="http://purl.org/dc/dcmitype/StillImage" />
        <dc:title />
      </cc:Work>
    </rdf:RDF>
  </metadata>
  <g
     inkscape:label="Master"
     inkscape:groupmode="layer"
     id="layer1"
     transform="translate(-384,-1004.3622)"
     style="display:inline">
    <path
       style="display:inline;opacity:1;fill:#ff950d;fill-opacity:1;stroke:none;stroke-width:16;stroke-miterlimit:4;stroke-dasharray:none;stroke-opacity:1"
       d="m 419.99997,1007.8778 -2.48438,2.4844 h -3.51562 v 3.5156 l -2.48438,2.4844 2.48438,2.4844 v 3.5156 h 3.51562 l 2.48438,2.4844 2.48438,-2.4844 h 3.51562 v -3.5156 l 2.48438,-2.4844 -2.48438,-2.4844 v -3.5156 h -3.51562 z"
       id="rect5864"
       inkscape:connector-curvature="0" />
    <path
       style="display:inline;opacity:1;fill:#747474;fill-opacity:1;stroke:none;stroke-width:16;stroke-miterlimit:4;stroke-dasharray:none;stroke-opacity:1"
       d="M 8 8 L 8 40 L 40 40 L 40 18 L 38.484375 18 L 38 18.484375 L 38 38 L 10 38 L 10 10 L 29.515625 10 L 30 9.515625 L 30 8 L 8 8 z M 14 14 L 14 18 L 18 18 L 18 14 L 14 14 z M 22 14 L 22 18 L 28 18 L 28 16.484375 L 25.515625 14 L 22 14 z M 14 22 L 14 26 L 18 26 L 18 22 L 14 22 z M 22 22 L 22 26 L 34 26 L 34 22 L 22 22 z M 14 30 L 14 34 L 18 34 L 18 30 L 14 30 z M 22 30 L 22 34 L 34 34 L 34 30 L 22 30 z "
       transform="translate(384,1004.3622)"
       id="rect5869" />
  </g>
</svg>

<svg viewBox="0 0 48 48" xmlns="http://www.w3.org/2000/svg">
  <path d="m36 3.478-2.484 2.484H30v3.516l-2.484 2.484L30 14.447v3.515h3.516L36 20.447l2.484-2.485H42v-3.515l2.484-2.485L42 9.478V5.962h-3.516z" fill="#ff950d"/>
  <path d="M8 8v32h32V18h-1.516l-.484.484V38H10V10h19.516L30 9.516V8H8zm6 6v4h4v-4h-4zm8 0v4h6v-1.516L25.516 14H22zm-8 8v4h4v-4h-4zm8 0v4h12v-4H22zm-8 8v4h4v-4h-4zm8 0v4h12v-4H22z" fill="#747474"/>
</svg>
